X:1
T:Title
%%score { 1 | 2 }
L:1/8
M:4/4
K:C
V:1 treble nm="Grand Piano"
V:2 bass 
V:1
 z4 z2[Q:1/4=100] E[DF] | [EG] [Ec]3 [FA]3 [Fc] | [EG] E3 z2 E[DF] | [EG] [Ec]3 [DB]3 c | %4
[M:3/4] d6 |[M:1/4] E[DF] |[M:4/4] [EG] [Ec]3 [FA]3 [Fc] | [EG] [CE]3 z2 [Ec][GB] | A3 d c2 [DB]2 | %9
[M:3/4] [Ec]6 |[M:1/4] E[DF] |[M:4/4] [EG] [Ec]3 [FA]3 [Fc] | [EG] E3 z2 E[DF] | %13
 [EG] [Ec]3 [DB]3 c |[M:3/4] d6 |[M:1/4] E[DF] |[M:4/4] [EG] [Ec]3 [FA]3 [Fc] | %17
 [EG] [CE]3 z2 [Ec][GB] | A3 d c2 [DB]2 |[M:3/4] [Ec]6 |] %20
V:2
 z4 z2 [C,C][C,C] | [C,C] [C,G,]3 [C,C]3 [C,C] | [C,C] [C,G,C]3 z2 [C,C][C,C] | %3
 [C,C] [C,G,]3 [C,G,]3[K:treble] [G,CE] |[M:3/4] [G,B,F]6 |[M:1/4][K:bass] [C,C][C,C] | %6
[M:4/4] [C,C] [C,G,]3 [C,C]3 [C,C] | [C,C] [C,G,]3 z2 [C,C][E,C] | %8
 [F,CF]3 [F,A,F] [G,E]2 [G,,G,]2 |[M:3/4] [C,G,]6 |[M:1/4] [C,C][C,C] | %11
[M:4/4] [C,C] [C,G,]3 [C,C]3 [C,C] | [C,C] [C,G,C]3 z2 [C,C][C,C] | %13
 [C,C] [C,G,]3 [C,G,]3[K:treble] [G,CE] |[M:3/4] [G,B,F]6 |[M:1/4][K:bass] [C,C][C,C] | %16
[M:4/4] [C,C] [C,G,]3 [C,C]3 [C,C] | [C,C] [C,G,]3 z2 [C,C][E,C] | %18
 [F,CF]3 [F,A,F] [G,E]2 [G,,G,]2 |[M:3/4] [C,G,]6 |] %20

